src/assets/icons/agent.svg

<svg width="24" height="24" viewBox="0 0 24 24" fill="none" xmlns="http://www.w3.org/2000/svg">
<!-- Body/screen -->
<path d="M19.75 13.75V7.75C19.75 6.64543 18.8546 5.75 17.75 5.75H7.75C6.64543 5.75 5.75 6.64543 5.75 7.75V13.75C5.75 14.8546 6.64543 15.75 7.75 15.75H17.75C18.8546 15.75 19.75 14.8546 19.75 13.75Z" stroke="#314158" stroke-width="1.5"/>
<!-- Left antenna -->
<path d="M3.75 12.75V14.75" stroke="#314158" stroke-width="1.5" stroke-linecap="round"/>
<!-- Right antenna -->
<path d="M21.75 12.75V14.75" stroke="#314158" stroke-width="1.5" stroke-linecap="round"/>
<!-- Left eye -->
<path d="M9.75 10.75V12.75" stroke="#314158" stroke-width="1.5" stroke-linecap="round"/>
<!-- Right eye -->
<path d="M15.75 10.75V12.75" stroke="#314158" stroke-width="1.5" stroke-linecap="round"/>
<!-- Top connector -->
<path d="M16.25 5.75V4.75C16.25 3.64543 15.3546 2.75 14.25 2.75H12.25" stroke="#314158" stroke-width="1.5" stroke-linecap="round"/>
</svg>

<svg fill="none" viewBox="0 0 24 24"><path stroke="currentColor" stroke-width="1.5" d="M19.75 13.75v-6a2 2 0 0 0-2-2h-10a2 2 0 0 0-2 2v6a2 2 0 0 0 2 2h10a2 2 0 0 0 2-2Z"/><path stroke="currentColor" stroke-linecap="round" stroke-width="1.5" d="M3.75 12.75v2M21.75 12.75v2M9.75 10.75v2M15.75 10.75v2M16.25 5.75v-1a2 2 0 0 0-2-2h-2"/></svg>
